X: 540
T: Durang's Hornpipe
B: jims roots
M:4/4
L:1/8
R: hornpipe
Q: 1/4=100
K:Dmaj
V:1 
%Francis Small
A2 |: "D"DAFA DAFA | "G"BcdB "D"BAFA | DAFA DAFA | "A"A,ECE A,ECE |
"D"DAFA DAFA | "G"BcdB "D"BAFA | fgaf "A"bgec | "D"d2d2d2A2 :|
|: "D"defe dcBA | "D"Bcdc "G"BAGF | "E"E2E2 edcB | "A"Acec "E"dBA^G |
"A"A^GAB cBcd | edef g2e2 | "D"fgaf "A"bgec | [1 "D"d2d2d2A2:| [2 "D"d2d2d4|]
% abcbook-tune_id 6298c25d3de5d08774c5c319


% abcbook-boost 0
% abcbook-tablature 
% abcbook-transpose 
% abcbook-lastupdated 1654178397765
% abcbook-soundfonts 
% abcbook-repeats 1
% <a href="http://thesession.org/tunes/10996#setting10996" rel="nofollow">http://thesession.org/tunes/10996#setting10996</a>

